apps/scalable/tomboy.svg

<svg height="48" width="48" xmlns="http://www.w3.org/2000/svg" xmlns:xlink="http://www.w3.org/1999/xlink"><linearGradient id="a" gradientTransform="matrix(1.6943724 0 0 1.7031157 -1149.3861 -334.0331)" gradientUnits="userSpaceOnUse" x1="849.76575" x2="847.38666" y1="498.79633" y2="533.82568"><stop offset="0" stop-color="#ffee97"/><stop offset="1" stop-color="#ffe76b"/></linearGradient><linearGradient id="b" gradientTransform="matrix(1.6938542 0 0 1.6882818 -1148.9551 -326.17426)" gradientUnits="userSpaceOnUse" x1="860.99445" x2="858.539" y1="527.72186" y2="524.48468"><stop offset="0" stop-color="#fed45b"/><stop offset="1" stop-color="#ffcc54"/></linearGradient><linearGradient id="c" gradientTransform="matrix(1.6991004 0 0 1.7109408 -1153.5032 -338.16377)" gradientUnits="userSpaceOnUse" x1="864.30438" x2="864.14178" y1="499.42667" y2="531.15161"><stop offset="0" stop-color="#f0a23a"/><stop offset="1" stop-color="#fde46a"/></linearGradient><g transform="matrix(.73914669 0 0 .73914669 -190.168943 -379.261417)"><rect fill="url(#c)" height="59.528103" ry="2.566411" width="59.528103" x="259.98755" y="515.81293"/><path d="m45.931641 20.138672c-1.096717 6.167262-3.014643 11.822165-10.519532 13.99414-2.826497 5.521766-6.185696 10.1391-14.519531 11.867188h23.210938c1.050912 0 1.896484-.845572 1.896484-1.896484v-23.896485z" fill-opacity=".078431" fill-rule="evenodd" transform="matrix(1.3529114 0 0 1.3529114 257.28174 513.1071)"/><path d="m259.9922 519.76374v52.64237s.49428 2.93492 3.46572 2.93492h22.02694c19.73994-3.50322 31.43501-14.32398 34.02554-33.42415v-22.78011c.14216-3.17747-2.64751-3.32384-2.64751-3.32384l-53.19891.18664c-3.95983-.27389-3.67178 3.76417-3.67178 3.76417z" fill="url(#a)" fill-rule="evenodd"/><path d="m462.5 96.193-21.726-21.726c-8.951-8.95-23.562-8.95-32.59 0l-227.816 227.894-119.34-119.34c-8.95-8.951-23.562-8.951-32.589 0l-21.727 21.726c-8.95 8.951-8.95 23.562 0 32.589l157.285 157.284c4.514 4.514 10.327 6.809 16.218 6.809s11.781-2.295 16.219-6.809l265.836-265.837c9.18-9.103 9.18-23.638.23-32.59z" fill="#d45500" opacity=".4" transform="matrix(.07032676 .00698922 -.00701229 .0700954 274.63817 526.85645)"/><g fill="url(#b)" fill-rule="evenodd"><path d="m285.54684 575.34103c11.27494-2.33795 15.82042-8.58427 19.64442-16.05473 10.15345-2.93849 12.74859-10.58865 14.23235-18.93241.21756 21.30901-14.91375 31.79793-33.87677 34.98714z" opacity=".9"/><path d="m285.54684 575.34103c11.27494-2.33795 15.82042-8.58427 19.64442-16.05473 10.15345-2.93849 12.74859-10.58865 14.23235-18.93241.21756 21.30901-14.91375 31.79793-33.87677 34.98714z" opacity=".9"/><path d="m285.54684 575.34103c11.27494-2.33795 15.82042-8.58427 19.64442-16.05473 10.15345-2.93849 12.74859-10.58865 14.23235-18.93241.21756 21.30901-14.91375 31.79793-33.87677 34.98714z"/></g></g></svg>

<?xml version="1.0" encoding="UTF-8" standalone="no"?>
<!-- Created with Inkscape (http://www.inkscape.org/) -->

<svg
   xmlns:dc="http://purl.org/dc/elements/1.1/"
   xmlns:cc="http://creativecommons.org/ns#"
   xmlns:rdf="http://www.w3.org/1999/02/22-rdf-syntax-ns#"
   xmlns:svg="http://www.w3.org/2000/svg"
   xmlns="http://www.w3.org/2000/svg"
   xmlns:xlink="http://www.w3.org/1999/xlink"
   xmlns:sodipodi="http://sodipodi.sourceforge.net/DTD/sodipodi-0.dtd"
   xmlns:inkscape="http://www.inkscape.org/namespaces/inkscape"
   width="48"
   height="48"
   id="svg5453"
   version="1.1"
   inkscape:version="0.91 r13725"
   sodipodi:docname="tomboy.svg">
  <sodipodi:namedview
     id="base"
     pagecolor="#5a5a5a"
     bordercolor="#666666"
     borderopacity="1.0"
     inkscape:pageopacity="0"
     inkscape:pageshadow="2"
     inkscape:zoom="8"
     inkscape:cx="7.1133644"
     inkscape:cy="26.370072"
     inkscape:document-units="px"
     inkscape:current-layer="g4581"
     showgrid="false"
     fit-margin-top="0"
     fit-margin-left="0"
     fit-margin-right="0"
     fit-margin-bottom="0"
     inkscape:window-width="1366"
     inkscape:window-height="642"
     inkscape:window-x="0"
     inkscape:window-y="33"
     inkscape:window-maximized="1"
     inkscape:showpageshadow="false"
     borderlayer="true"
     showguides="false"
     showborder="true">
    <inkscape:grid
       id="grid4063"
       type="xygrid" />
    <sodipodi:guide
       id="guide4146"
       orientation="4,0"
       position="1.1650391e-05,47.999996" />
    <sodipodi:guide
       id="guide4148"
       orientation="0,48"
       position="1.1650391e-05,43.999996" />
    <sodipodi:guide
       id="guide4150"
       orientation="-4,0"
       position="48.000012,43.999996" />
    <sodipodi:guide
       id="guide4154"
       orientation="4,0"
       position="1.1650391e-05,4.0000264" />
    <sodipodi:guide
       id="guide4156"
       orientation="0,48"
       position="1.1650391e-05,2.6367188e-05" />
    <sodipodi:guide
       id="guide4158"
       orientation="-4,0"
       position="48.000012,2.6367188e-05" />
    <sodipodi:guide
       id="guide4160"
       orientation="0,-48"
       position="48.000012,4.0000264" />
    <sodipodi:guide
       id="guide4162"
       orientation="0,-4"
       position="48.000012,48.000026" />
    <sodipodi:guide
       id="guide4164"
       orientation="48,0"
       position="44.000012,48.000026" />
    <sodipodi:guide
       id="guide4166"
       orientation="0,4"
       position="44.000012,2.6367188e-05" />
    <sodipodi:guide
       id="guide4168"
       orientation="-48,0"
       position="48.000012,2.6367188e-05" />
    <sodipodi:guide
       id="guide4170"
       orientation="0,-4"
       position="4.0000422,48.000026" />
    <sodipodi:guide
       id="guide4172"
       orientation="48,0"
       position="4.2167969e-05,48.000026" />
    <sodipodi:guide
       id="guide4174"
       orientation="0,4"
       position="4.2167969e-05,2.6367188e-05" />
    <sodipodi:guide
       id="guide4176"
       orientation="-48,0"
       position="4.0000422,2.6367188e-05" />
  </sodipodi:namedview>
  <defs
     id="defs5455">
    <linearGradient
       id="linearGradient4350"
       inkscape:collect="always">
      <stop
         id="stop4352"
         offset="0"
         style="stop-color:#f0a23a;stop-opacity:1" />
      <stop
         id="stop4354"
         offset="1"
         style="stop-color:#fde46a;stop-opacity:1" />
    </linearGradient>
    <linearGradient
       id="linearGradient4309"
       inkscape:collect="always">
      <stop
         id="stop4311"
         offset="0"
         style="stop-color:#ffee97;stop-opacity:1" />
      <stop
         id="stop4313"
         offset="1"
         style="stop-color:#ffe76b;stop-opacity:1" />
    </linearGradient>
    <linearGradient
       id="linearGradient4237-0">
      <stop
         id="stop4239-8"
         style="stop-color:#fed45b;stop-opacity:1"
         offset="0" />
      <stop
         id="stop4241-9"
         style="stop-color:#ffcc54;stop-opacity:1"
         offset="1" />
    </linearGradient>
    <linearGradient
       gradientTransform="matrix(1.6943724,0,0,1.7031157,-1149.3861,-334.0331)"
       gradientUnits="userSpaceOnUse"
       y2="533.82568"
       x2="847.38666"
       y1="498.79633"
       x1="849.76575"
       id="linearGradient4315"
       xlink:href="#linearGradient4309"
       inkscape:collect="always" />
    <linearGradient
       gradientTransform="matrix(1.6938542,0,0,1.6882818,-1148.9551,-326.17426)"
       gradientUnits="userSpaceOnUse"
       y2="524.48468"
       x2="858.539"
       y1="527.72186"
       x1="860.99445"
       id="linearGradient4348"
       xlink:href="#linearGradient4237-0"
       inkscape:collect="always" />
    <linearGradient
       gradientTransform="matrix(1.6991004,0,0,1.7109408,-1153.5032,-338.16377)"
       gradientUnits="userSpaceOnUse"
       y2="531.15161"
       x2="864.14178"
       y1="499.42667"
       x1="864.30438"
       id="linearGradient4356"
       xlink:href="#linearGradient4350"
       inkscape:collect="always" />
    <linearGradient
       inkscape:collect="always"
       xlink:href="#linearGradient4237-0"
       id="linearGradient4402"
       gradientUnits="userSpaceOnUse"
       gradientTransform="matrix(1.6938542,0,0,1.6882818,-1148.9551,-326.17426)"
       x1="860.99445"
       y1="527.72186"
       x2="858.539"
       y2="524.48468" />
  </defs>
  <metadata
     id="metadata5458">
    <rdf:RDF>
      <cc:Work
         rdf:about="">
        <dc:format>image/svg+xml</dc:format>
        <dc:type
           rdf:resource="http://purl.org/dc/dcmitype/StillImage" />
        <dc:title></dc:title>
      </cc:Work>
    </rdf:RDF>
  </metadata>
  <g
     transform="translate(-384.57143,-499.798)"
     id="layer1"
     inkscape:groupmode="layer"
     inkscape:label="Layer 1">
    <g
       transform="translate(-45.094638,-4.5941823)"
       inkscape:label="Layer 1"
       id="layer1-75">
      <g
         id="g4816"
         transform="translate(49.044051,-24.616705)">
        <g
           transform="translate(45.121104,5.0503102)"
           id="g5112">
          <g
             id="g4581"
             transform="matrix(0.73914669,0,0,0.73914669,145.33197,144.69716)">
            <rect
               ry="2.566411"
               y="515.81293"
               x="259.98755"
               height="59.528103"
               width="59.528103"
               id="rect4303"
               style="opacity:1;fill:url(#linearGradient4356);fill-opacity:1;stroke:none;stroke-width:1.5;stroke-linecap:round;stroke-linejoin:round;stroke-miterlimit:4;stroke-dasharray:none;stroke-dashoffset:0;stroke-opacity:1" />
            <path
               style="fill:#000000;fill-opacity:0.07843137;fill-rule:evenodd;stroke:none;stroke-width:0.40587342;stroke-linecap:butt;stroke-linejoin:miter;stroke-miterlimit:4;stroke-dasharray:none;stroke-opacity:1"
               d="M 45.931641 20.138672 C 44.834924 26.305934 42.916998 31.960837 35.412109 34.132812 C 32.585612 39.654578 29.226413 44.271912 20.892578 46 L 44.103516 46 C 45.154428 46 46 45.154428 46 44.103516 L 46 20.207031 L 45.931641 20.138672 z "
               id="path4309"
               transform="matrix(1.3529114,0,0,1.3529114,257.28174,513.1071)" />
            <path
               sodipodi:nodetypes="ccccccccc"
               inkscape:connector-curvature="0"
               id="path4305"
               d="m 259.9922,519.76374 0,52.64237 c 0,0 0.49428,2.93492 3.46572,2.93492 l 22.02694,0 c 19.73994,-3.50322 31.43501,-14.32398 34.02554,-33.42415 l 0,-22.78011 c 0.14216,-3.17747 -2.64751,-3.32384 -2.64751,-3.32384 l -53.19891,0.18664 c -3.95983,-0.27389 -3.67178,3.76417 -3.67178,3.76417 z"
               style="opacity:1;fill:url(#linearGradient4315);fill-opacity:1;fill-rule:evenodd;stroke:none;stroke-width:1.35291135px;stroke-linecap:butt;stroke-linejoin:miter;stroke-opacity:1" />
            <g
               transform="matrix(0.07032676,0.00698922,-0.00701229,0.0700954,274.63817,526.85645)"
               id="g4639"
               style="fill:#d45500;fill-opacity:1;stroke:none;stroke-width:4.24764156;stroke-miterlimit:4;stroke-dasharray:none;stroke-opacity:1;opacity:0.4">
              <path
                 id="path4641"
                 d="M 462.5,96.193 440.774,74.467 c -8.951,-8.95 -23.562,-8.95 -32.59,0 L 180.368,302.361 61.028,183.021 c -8.95,-8.951 -23.562,-8.951 -32.589,0 L 6.712,204.747 c -8.95,8.951 -8.95,23.562 0,32.589 L 163.997,394.62 c 4.514,4.514 10.327,6.809 16.218,6.809 5.891,0 11.781,-2.295 16.219,-6.809 L 462.27,128.783 c 9.18,-9.103 9.18,-23.638 0.23,-32.59 z"
                 inkscape:connector-curvature="0"
                 style="fill:#d45500;fill-opacity:1;stroke:none;stroke-width:4.24764156;stroke-miterlimit:4;stroke-dasharray:none;stroke-opacity:1" />
            </g>
            <g
               transform="matrix(0.07032676,0.00698922,-0.00701229,0.0700954,274.63817,526.85645)"
               id="g4643"
               style="fill:#e8923a;fill-opacity:1;stroke:#cb8034;stroke-width:4.24764156;stroke-miterlimit:4;stroke-dasharray:none;stroke-opacity:1" />
            <g
               transform="matrix(0.07032676,0.00698922,-0.00701229,0.0700954,274.63817,526.85645)"
               id="g4645"
               style="fill:#e8923a;fill-opacity:1;stroke:#cb8034;stroke-width:4.24764156;stroke-miterlimit:4;stroke-dasharray:none;stroke-opacity:1" />
            <g
               transform="matrix(0.07032676,0.00698922,-0.00701229,0.0700954,274.63817,526.85645)"
               id="g4647"
               style="fill:#e8923a;fill-opacity:1;stroke:#cb8034;stroke-width:4.24764156;stroke-miterlimit:4;stroke-dasharray:none;stroke-opacity:1" />
            <g
               transform="matrix(0.07032676,0.00698922,-0.00701229,0.0700954,274.63817,526.85645)"
               id="g4649"
               style="fill:#e8923a;fill-opacity:1;stroke:#cb8034;stroke-width:4.24764156;stroke-miterlimit:4;stroke-dasharray:none;stroke-opacity:1" />
            <g
               transform="matrix(0.07032676,0.00698922,-0.00701229,0.0700954,274.63817,526.85645)"
               id="g4651"
               style="fill:#e8923a;fill-opacity:1;stroke:#cb8034;stroke-width:4.24764156;stroke-miterlimit:4;stroke-dasharray:none;stroke-opacity:1" />
            <g
               transform="matrix(0.07032676,0.00698922,-0.00701229,0.0700954,274.63817,526.85645)"
               id="g4653"
               style="fill:#e8923a;fill-opacity:1;stroke:#cb8034;stroke-width:4.24764156;stroke-miterlimit:4;stroke-dasharray:none;stroke-opacity:1" />
            <g
               transform="matrix(0.07032676,0.00698922,-0.00701229,0.0700954,274.63817,526.85645)"
               id="g4655"
               style="fill:#e8923a;fill-opacity:1;stroke:#cb8034;stroke-width:4.24764156;stroke-miterlimit:4;stroke-dasharray:none;stroke-opacity:1" />
            <g
               transform="matrix(0.07032676,0.00698922,-0.00701229,0.0700954,274.63817,526.85645)"
               id="g4657"
               style="fill:#e8923a;fill-opacity:1;stroke:#cb8034;stroke-width:4.24764156;stroke-miterlimit:4;stroke-dasharray:none;stroke-opacity:1" />
            <g
               transform="matrix(0.07032676,0.00698922,-0.00701229,0.0700954,274.63817,526.85645)"
               id="g4659"
               style="fill:#e8923a;fill-opacity:1;stroke:#cb8034;stroke-width:4.24764156;stroke-miterlimit:4;stroke-dasharray:none;stroke-opacity:1" />
            <g
               transform="matrix(0.07032676,0.00698922,-0.00701229,0.0700954,274.63817,526.85645)"
               id="g4661"
               style="fill:#e8923a;fill-opacity:1;stroke:#cb8034;stroke-width:4.24764156;stroke-miterlimit:4;stroke-dasharray:none;stroke-opacity:1" />
            <g
               transform="matrix(0.07032676,0.00698922,-0.00701229,0.0700954,274.63817,526.85645)"
               id="g4663"
               style="fill:#e8923a;fill-opacity:1;stroke:#cb8034;stroke-width:4.24764156;stroke-miterlimit:4;stroke-dasharray:none;stroke-opacity:1" />
            <g
               transform="matrix(0.07032676,0.00698922,-0.00701229,0.0700954,274.63817,526.85645)"
               id="g4665"
               style="fill:#e8923a;fill-opacity:1;stroke:#cb8034;stroke-width:4.24764156;stroke-miterlimit:4;stroke-dasharray:none;stroke-opacity:1" />
            <g
               transform="matrix(0.07032676,0.00698922,-0.00701229,0.0700954,274.63817,526.85645)"
               id="g4667"
               style="fill:#e8923a;fill-opacity:1;stroke:#cb8034;stroke-width:4.24764156;stroke-miterlimit:4;stroke-dasharray:none;stroke-opacity:1" />
            <g
               transform="matrix(0.07032676,0.00698922,-0.00701229,0.0700954,274.63817,526.85645)"
               id="g4669"
               style="fill:#e8923a;fill-opacity:1;stroke:#cb8034;stroke-width:4.24764156;stroke-miterlimit:4;stroke-dasharray:none;stroke-opacity:1" />
            <g
               transform="matrix(0.07032676,0.00698922,-0.00701229,0.0700954,274.63817,526.85645)"
               id="g4671"
               style="fill:#e8923a;fill-opacity:1;stroke:#cb8034;stroke-width:4.24764156;stroke-miterlimit:4;stroke-dasharray:none;stroke-opacity:1" />
            <path
               style="opacity:0.9;fill:url(#linearGradient4348);fill-opacity:1;fill-rule:evenodd;stroke:none;stroke-width:0.40587342;stroke-linecap:butt;stroke-linejoin:miter;stroke-miterlimit:4;stroke-dasharray:none;stroke-opacity:1"
               d="m 285.54684,575.34103 c 11.27494,-2.33795 15.82042,-8.58427 19.64442,-16.05473 10.15345,-2.93849 12.74859,-10.58865 14.23235,-18.93241 0.21756,21.30901 -14.91375,31.79793 -33.87677,34.98714 z"
               id="path4307"
               inkscape:connector-curvature="0"
               sodipodi:nodetypes="cccc" />
            <path
               sodipodi:nodetypes="cccc"
               inkscape:connector-curvature="0"
               id="path4396"
               d="m 285.54684,575.34103 c 11.27494,-2.33795 15.82042,-8.58427 19.64442,-16.05473 10.15345,-2.93849 12.74859,-10.58865 14.23235,-18.93241 0.21756,21.30901 -14.91375,31.79793 -33.87677,34.98714 z"
               style="opacity:0.9;fill:url(#linearGradient4348);fill-opacity:1;fill-rule:evenodd;stroke:none;stroke-width:0.40587342;stroke-linecap:butt;stroke-linejoin:miter;stroke-miterlimit:4;stroke-dasharray:none;stroke-opacity:1" />
            <path
               style="opacity:1;fill:url(#linearGradient4402);fill-opacity:1;fill-rule:evenodd;stroke:none;stroke-width:0.40587342;stroke-linecap:butt;stroke-linejoin:miter;stroke-miterlimit:4;stroke-dasharray:none;stroke-opacity:1"
               d="m 285.54684,575.34103 c 11.27494,-2.33795 15.82042,-8.58427 19.64442,-16.05473 10.15345,-2.93849 12.74859,-10.58865 14.23235,-18.93241 0.21756,21.30901 -14.91375,31.79793 -33.87677,34.98714 z"
               id="path4400"
               inkscape:connector-curvature="0"
               sodipodi:nodetypes="cccc" />
          </g>
        </g>
      </g>
    </g>
  </g>
</svg>
